src/64x64/places/folder-gruvbox-original-purple-applications.svg

<?xml version="1.0" encoding="UTF-8"?>
<svg width="64" height="64" version="1" xmlns="http://www.w3.org/2000/svg">
 <rect x="4" y="22" width="56" height="36" rx="2.8" ry="2.8" opacity=".2"/>
 <path d="m4 46.2c0 1.551 1.2488 2.8 2.8 2.8h50.4c1.551 0 2.8-1.249 2.8-2.8v-30.4c0-1.551-1.249-2.8-2.8-2.8h-25.2c-4.2 0-5.6-6-9.8-6h-15.4c-1.5512 0-2.8 1.2488-2.8 2.8" fill="#8f3f71"/>
 <rect x="4" y="20" width="56" height="36" rx="2.8" ry="2.8" opacity=".2"/>
 <rect x="8" y="16" width="48" height="22" rx="2.8" ry="2.8" fill="#E1D4B6"/>
 <rect x="4" y="21" width="56" height="36" rx="2.8" ry="2.8" fill="#d3869b"/>
 <path d="m6.8008 7c-1.5512 0-2.8008 1.2496-2.8008 2.8008v1.0002c0-1.5514 1.2496-2.801 2.8008-2.801h15.398c4.2 0 5.601 6 9.801 6h25.199c1.551 0 2.801 1.25 2.801 2.801v-1c0-1.551-1.25-2.801-2.801-2.801h-25.199c-4.2 0-5.601-6-9.801-6z" fill="#E1D4B6" opacity=".1"/>
 <path d="m24 28c-1.662 0-3 1.338-3 3v4c0 1.662 1.338 3 3 3h4c1.662 0 3-1.338 3-3v-4c0-1.662-1.338-3-3-3h-4zm12 0c-1.662 0-3 1.338-3 3v4c0 1.662 1.338 3 3 3h4c1.662 0 3-1.338 3-3v-4c0-1.662-1.338-3-3-3h-4zm-12 12c-1.662 0-3 1.338-3 3v4c0 1.662 1.338 3 3 3h4c1.662 0 3-1.338 3-3v-4c0-1.662-1.338-3-3-3h-4zm13 0c-0.554 0-1 0.446-1 1v2h-1.5c-1.2891-1.45e-4 -1.978 1.5183-1.1289 2.4883l3.5 4c0.59767 0.68295 1.6601 0.68295 2.2578 0l3.5-4c0.84913-0.96995 0.16021-2.4884-1.1289-2.4883h-1.5v-2c0-0.554-0.446-1-1-1h-2z" fill="#393534"/>
</svg>

<svg xmlns="http://www.w3.org/2000/svg" width="64" height="64" version="1">
 <rect style="opacity:0.2" width="56" height="36" x="4" y="22" rx="2.8" ry="2.8"/>
 <path style="fill:#8f3f71" d="M 4,46.2 C 4,47.751 5.2488,49 6.8,49 H 57.2 C 58.751,49 60,47.751 60,46.2 V 15.8 C 60,14.249 58.751,13 57.2,13 H 32 C 27.8,13 26.4,7 22.2,7 H 6.8 C 5.2488,7 4,8.2488 4,9.8"/>
 <rect style="opacity:0.2" width="56" height="36" x="4" y="20" rx="2.8" ry="2.8"/>
 <rect style="fill:#E1D4B6" width="48" height="22" x="8" y="16" rx="2.8" ry="2.8"/>
 <rect style="fill:#d3869b" width="56" height="36" x="4" y="21" rx="2.8" ry="2.8"/>
 <path style="opacity:0.1;fill:#E1D4B6" d="M 6.8008,7 C 5.2496,7 4,8.2496 4,9.8008 V 10.801 C 4,9.2496 5.2496,8 6.8008,8 H 22.199 C 26.399,8 27.8,14 32,14 H 57.199 C 58.75,14 60,15.25 60,16.801 V 15.801 C 60,14.25 58.75,13 57.199,13 H 32 C 27.8,13 26.399,7 22.199,7 Z"/>
 <path style="fill:#393534" d="M 24 28 C 22.338 28 21 29.338 21 31 L 21 35 C 21 36.662 22.338 38 24 38 L 28 38 C 29.662 38 31 36.662 31 35 L 31 31 C 31 29.338 29.662 28 28 28 L 24 28 z M 36 28 C 34.338 28 33 29.338 33 31 L 33 35 C 33 36.662 34.338 38 36 38 L 40 38 C 41.662 38 43 36.662 43 35 L 43 31 C 43 29.338 41.662 28 40 28 L 36 28 z M 24 40 C 22.338 40 21 41.338 21 43 L 21 47 C 21 48.662 22.338 50 24 50 L 28 50 C 29.662 50 31 48.662 31 47 L 31 43 C 31 41.338 29.662 40 28 40 L 24 40 z M 37 40 C 36.446 40 36 40.446 36 41 L 36 43 L 34.5 43 C 33.210881 42.999855 32.521966 44.518327 33.371094 45.488281 L 36.871094 49.488281 C 37.468763 50.17123 38.531237 50.17123 39.128906 49.488281 L 42.628906 45.488281 C 43.478034 44.518327 42.789119 42.999855 41.5 43 L 40 43 L 40 41 C 40 40.446 39.554 40 39 40 L 37 40 z"/>
</svg>
